images/terms.svg

<?xml version="1.0" encoding="UTF-8" standalone="no"?>
<svg width="236px" height="290px" viewBox="0 0 236 290" version="1.1" xmlns="http://www.w3.org/2000/svg" xmlns:xlink="http://www.w3.org/1999/xlink" xmlns:sketch="http://www.bohemiancoding.com/sketch/ns">
    <title>terms</title>
    <description>Created with Sketch (http://www.bohemiancoding.com/sketch)</description>
    <defs></defs>
    <g id="Page-1" stroke="none" stroke-width="1" fill="none" fill-rule="evenodd" sketch:type="MSPage">
        <g id="website" sketch:type="MSArtboardGroup" transform="translate(-835.000000, -2142.000000)">
            <g id="Path-copy-2-+-Imported-Layers" sketch:type="MSLayerGroup" transform="translate(835.000000, 2142.000000)">
                <path d="M226.042194,0.996563574 C231.421224,0.996563574 236,5.82039861 236,11.9587629 L236,279.037801 C236,285.176165 231.421224,290 226.042194,290 L10.9535865,290 C5.57469727,290 0.995780591,285.176307 0.995780591,279.037801 L3.98312236,279.037801 C3.94578192,283.573456 7.23705679,287.040816 10.9535865,287.010309 L226.042194,287.010309 C229.758724,287.040816 233.049999,283.573456 233.012658,279.037801 L233.012658,11.9587629 C233.049999,7.42310719 229.758724,3.95574797 226.042194,3.9862543 L226.042194,0.996563574 Z" id="Path-copy-2" fill-opacity="0.7" fill="#933098" sketch:type="MSShapeGroup"></path>
                <path d="M225.891084,0 L7.48828592,0 C3.35268168,0 0,3.51716461 0,7.85519734 L0,279.296124 C0,283.634156 3.35268168,287.151321 7.48828592,287.151321 L225.891084,287.151321 C230.026036,287.151321 233.378718,283.634156 233.378718,279.296124 L233.378718,7.85519734 C233.378718,3.51716461 230.026036,0 225.891084,0 L225.891084,0 Z M119.188714,190.959847 L39.6298318,190.959847 C36.4766291,190.959847 36.4766291,186.050349 39.6298318,186.050349 L119.188714,186.050349 C122.341916,186.050349 122.341916,190.959847 119.188714,190.959847 L119.188714,190.959847 Z M119.188714,212.297182 L39.6298318,212.297182 C36.4766291,212.297182 36.4766291,207.387683 39.6298318,207.387683 L119.188714,207.387683 C122.341916,207.387683 122.341916,212.297182 119.188714,212.297182 L119.188714,212.297182 Z M103.675635,169.621858 L20.0730652,169.621858 C16.9198625,169.621858 16.9198625,164.71236 20.0730652,164.71236 L22.6728114,164.71236 L123.184161,164.71236 L206.786731,164.71236 C209.939933,164.71236 209.939933,169.621858 206.786731,169.621858 L204.186985,169.621858 L103.675635,169.621858 L103.675635,169.621858 Z M206.787383,126.946535 L204.187636,126.946535 L103.676287,126.946535 L20.0730652,126.946535 C16.9198625,126.946535 16.9198625,122.037037 20.0730652,122.037037 L22.6728114,122.037037 L123.184161,122.037037 L206.787383,122.037037 C209.940585,122.037037 209.940585,126.946535 206.787383,126.946535 L206.787383,126.946535 Z M122.36734,108.063295 L115.952721,108.063295 L20.0730652,108.063295 C13.7673118,108.063295 13.7673118,98.2442986 20.0730652,98.2442986 L26.4876846,98.2442986 L122.36734,98.2442986 C128.673094,98.2442986 128.673094,108.063295 122.36734,108.063295 L122.36734,108.063295 Z M20.0730652,140.919622 L26.4876846,140.919622 L122.36734,140.919622 C128.673094,140.919622 128.673094,150.738619 122.36734,150.738619 L115.952721,150.738619 L20.0730652,150.738619 C13.7673118,150.738619 13.7673118,140.919622 20.0730652,140.919622 L20.0730652,140.919622 Z M206.788034,233.635171 L204.188288,233.635171 L103.676287,233.635171 L20.0730652,233.635171 C16.9198625,233.635171 16.9198625,228.725672 20.0730652,228.725672 L22.6728114,228.725672 L123.184813,228.725672 L206.788034,228.725672 C209.941237,228.725672 209.941237,233.635171 206.788034,233.635171 L206.788034,233.635171 Z M201.055294,51.2767645 L200.975763,51.2767645 L111.502905,51.2767645 L25.2060645,51.2767645 C12.5945577,51.2767645 12.5945577,31.6387711 25.2060645,31.6387711 L25.2855954,31.6387711 L114.758454,31.6387711 L201.055294,31.6387711 C213.666801,31.6387711 213.666801,51.2767645 201.055294,51.2767645 L201.055294,51.2767645 Z" id="Imported-Layers" fill="#FFFFFF" sketch:type="MSShapeGroup"></path>
            </g>
        </g>
    </g>
</svg>

<?xml version="1.0" encoding="utf-8"?>
<!-- Generator: Adobe Illustrator 16.0.0, SVG Export Plug-In . SVG Version: 6.00 Build 0)  -->
<!DOCTYPE svg PUBLIC "-//W3C//DTD SVG 1.1//EN" "http://www.w3.org/Graphics/SVG/1.1/DTD/svg11.dtd">
<svg version="1.1" xmlns="http://www.w3.org/2000/svg" xmlns:xlink="http://www.w3.org/1999/xlink" x="0px" y="0px" width="236px"
	 height="290px" viewBox="0 0 236 290" enable-background="new 0 0 236 290" xml:space="preserve">
<g id="Layer_2">
</g>
<g id="Layer_1" xmlns:sketch="http://www.bohemiancoding.com/sketch/ns">
	<path fill="#FFFFFF" d="M226.04,3.99V1c2.12,0,4.11,0.75,5.75,2.03c-1.36-1.84-3.5-3.03-5.9-3.03H7.49C3.35,0,0,3.52,0,7.85V279.3
		c0,2.55,1.16,4.811,2.96,6.25C1.73,283.74,1,281.5,1,279.04h2.98c-0.03,4.53,3.26,8,6.97,7.97h215.09
		c3.72,0.03,7.01-3.439,6.97-7.97V11.96C233.05,7.42,229.76,3.96,226.04,3.99z M20.07,140.92h6.42h95.88c6.3,0,6.3,9.82,0,9.82
		h-6.42H20.07C13.77,150.74,13.77,140.92,20.07,140.92z M20.07,98.24h6.42h95.88c6.3,0,6.3,9.82,0,9.82h-6.42H20.07
		C13.77,108.06,13.77,98.24,20.07,98.24z M206.79,233.63h-2.6H103.68H20.07c-3.15,0-3.15-4.899,0-4.899h2.6h100.51h83.61
		C209.94,228.73,209.94,233.63,206.79,233.63z M39.63,207.39h79.561c3.149,0,3.149,4.91,0,4.91H39.63
		C36.48,212.3,36.48,207.39,39.63,207.39z M39.63,186.05h79.561c3.149,0,3.149,4.91,0,4.91H39.63
		C36.48,190.96,36.48,186.05,39.63,186.05z M206.79,169.62h-2.6H103.68H20.07c-3.15,0-3.15-4.91,0-4.91h2.6h100.51h83.61
		C209.94,164.71,209.94,169.62,206.79,169.62z M206.79,126.95h-2.6H103.68H20.07c-3.15,0-3.15-4.91,0-4.91h2.6h100.51h83.61
		C209.94,122.04,209.94,126.95,206.79,126.95z M201.05,51.28h-0.069H111.5H25.21c-12.62,0-12.62-19.64,0-19.64h0.08h89.47h86.29
		C213.67,31.64,213.67,51.28,201.05,51.28z"/>
	<path opacity="0.7" fill="#933098" d="M7.49,287.15H225.89c4.141,0,7.49-3.521,7.49-7.851V7.85c0-1.82-0.59-3.49-1.59-4.82
		C234.31,5,236,8.24,236,11.96v267.08c0,6.14-4.58,10.96-9.96,10.96H10.95c-3.23,0-6.16-1.73-7.99-4.45
		C4.22,286.55,5.79,287.15,7.49,287.15z"/>
	<path fill="#FFFFFF" d="M10.95,287.01h215.09c3.72,0.03,7.01-3.439,6.97-7.97V11.96c0.04-4.54-3.25-8-6.97-7.97V1
		c2.12,0,4.11,0.75,5.75,2.03c1,1.33,1.59,3,1.59,4.82V279.3c0,4.33-3.35,7.851-7.49,7.851H7.49c-1.7,0-3.27-0.601-4.53-1.601
		C1.73,283.74,1,281.5,1,279.04h2.98C3.95,283.57,7.24,287.04,10.95,287.01z"/>
</g>
</svg>
